X:1
T:The Dog's Arse or Nano's Imagination
R:Jig
C:Paddy O'Brien
M:6/8
L:1/8
K:G
||: ABG FAD ded cAF | GGG ABG FAD EFG | ABG FAD ded cAG | Add faf ge^c d3 :||
|| d^cd AFA dfa afd | eAB c2d eaf ge^c | ABG FAD ded cAG | Add faf ge^c d2A |\
d^cd AFA dfa afd | eAB c2d eaf gfg | afa geg fed cAG l Add faf ge^c d3 ||
